X:1
T:Lo-fi Serenity
M:4/4
L:1/8
K:Dm
A2 BA GF|ED2 E4|GF2 EG FD|CD2 C4|AB2 BA GF|ED2 E4|GF2 EG FD|CD2 D4||